icons/mobile/24/svg/lock-24.svg

<svg width="24" height="24" viewBox="0 0 24 24" fill="none" xmlns="http://www.w3.org/2000/svg">
<path fill-rule="evenodd" clip-rule="evenodd" d="M12 2C14.7612 2 17 4.23875 17 7V10.3857C17.0903 10.3997 17.1813 10.4128 17.2725 10.4277C18.8682 10.6886 19.9999 12.0885 20 13.6729V18.3242C19.9999 19.9467 18.8243 21.3228 17.2246 21.5811C15.7031 21.8266 13.9471 22 12 22C10.5235 22 8.73524 21.9 6.72754 21.5723C5.1318 21.3114 4.00007 19.9115 4 18.3271V13.6758C4.00011 12.0533 5.17573 10.6772 6.77539 10.4189C6.84969 10.407 6.92459 10.3954 7 10.3838V7C7 4.23875 9.23875 2 12 2ZM12 11.75C10.1572 11.75 8.49514 11.914 7.05469 12.1465C6.30055 12.2682 5.75011 12.9145 5.75 13.6758V18.3271C5.75007 19.0864 6.29195 19.7283 7.00977 19.8457C8.91007 20.1559 10.6025 20.25 12 20.25C13.8428 20.25 15.5049 20.086 16.9453 19.8535C17.6994 19.7318 18.2499 19.0855 18.25 18.3242V13.6729C18.2499 12.9136 17.708 12.2717 16.9902 12.1543C15.0899 11.8441 13.3975 11.75 12 11.75ZM12 3.75C10.2052 3.75 8.75 5.20525 8.75 7V10.1621C9.76029 10.0615 10.8466 10 12 10C12.96 10 14.0517 10.0434 15.25 10.1631V7C15.25 5.20525 13.7948 3.75 12 3.75Z" fill="black"/>
</svg>

<!-- This Source Code Form is subject to the terms of the Mozilla Public
   - License, v. 2.0. If a copy of the MPL was not distributed with this
   - file, You can obtain one at http://mozilla.org/MPL/2.0/. -->
<svg xmlns="http://www.w3.org/2000/svg" width="24" height="24" fill="none" viewBox="0 0 24 24">
    <path fill="#000" fill-rule="evenodd" d="M12 2a5 5 0 0 1 5 5v3.386l.273.042c1.595.26 2.727 1.66 2.727 3.245v4.651a3.3 3.3 0 0 1-2.775 3.257 32.8 32.8 0 0 1-10.497-.009C5.132 21.312 4 19.912 4 18.327v-4.651a3.3 3.3 0 0 1 2.775-3.257L7 10.384V7a5 5 0 0 1 5-5m0 9.75c-1.843 0-3.505.164-4.945.396a1.55 1.55 0 0 0-1.305 1.53v4.651c0 .76.542 1.401 1.26 1.519a31 31 0 0 0 9.935.008 1.55 1.55 0 0 0 1.305-1.53v-4.651c0-.76-.542-1.401-1.26-1.519-1.9-.31-3.592-.404-4.99-.404m0-8A3.25 3.25 0 0 0 8.75 7v3.162a33 33 0 0 1 6.5.001V7A3.25 3.25 0 0 0 12 3.75" clip-rule="evenodd" />
</svg>
